style-guide/assets/xd-icons-pin-tiny.svg

<?xml version="1.0" encoding="UTF-8"?>
<svg width="12px" height="12px" viewBox="0 0 12 12" version="1.1" xmlns="http://www.w3.org/2000/svg" xmlns:xlink="http://www.w3.org/1999/xlink">
    <!-- Generator: Sketch 51.3 (57544) - http://www.bohemiancoding.com/sketch -->
    <title>pin</title>
    <desc>Created with Sketch.</desc>
    <defs></defs>
    <g id="pin" stroke="none" stroke-width="1" fill="none" fill-rule="evenodd">
        <path d="M7,6 L6,6 L5,6 L5,2 L7,2 L7,6 Z M10,6 L9,6 L9,2 L10,2 C10.553,2 11,1.552 11,1 C11,0.448 10.553,0 10,0 L2,0 C1.447,0 1,0.448 1,1 C1,1.552 1.447,2 2,2 L3,2 L3,6 L2,6 C1.447,6 1,6.448 1,7 C1,7.552 1.447,8 2,8 L5,8 L5,11 C5,11.552 5.447,12 6,12 C6.553,12 7,11.552 7,11 L7,8 L10,8 C10.553,8 11,7.552 11,7 C11,6.448 10.553,6 10,6 Z" id="Fill-1" fill="#000000"></path>
    </g>
</svg>

<svg viewBox="0 0 12 12" xmlns="http://www.w3.org/2000/svg">
  <path d="M7 6H5V2h2v4zm3 0H9V2h1a1 1 0 1 0 0-2H2a1 1 0 1 0 0 2h1v4H2a1 1 0 1 0 0 2h3v3a1 1 0 1 0 2 0V8h3a1 1 0 1 0 0-2z"/>
</svg>
